X:1
T:Dixerunt discipuli - Prima pars
T:Franciscus IJsenbaert
T:Leiden Choir Books - Codex D - folio cvi & cvii
%%score 1 2 3 4
L:1/8
Q:1/4=86
M:4/4
K:C
V:1 treble nm="Discantus" snm="Discantus"
V:2 treble nm="Contratenor" snm="Contratenor"
V:3 treble-8 nm="Tenor" snm="Tenor"
V:4 bass nm="Barriton" snm="Barriton"
V:1
"^Andante" z8 | z4!mp! G4 | B4 A2 G2 | B3 c d4 | z2 A2 B2 d2 | A2 d2 c2 A2- | A2 G2 A4 | z6 G2 | %8
w: |Di-|xe- runt di-|sci- pu- li|ad be- a-|tum- um Mar- ti-|* * num|di-|
 B2 A4 G2 | B3 c d2 G2 | A2 c2 G2 B2 | A4 G4 | z4 z2 G2 | A2 c2 G2 B2 | A4 G4 | z6 d2- | %16
w: xe- runt di-|sci- pu- li *|||||||
 d2 c2 _B2 A2 | c2 B2 A4 | z6 G2- | G2 F2 E2 D2 | F3 E DEFG | A2 G4 F2 | G8 | z8 | z8 | z8 | %26
w: ||||||ris||||
 z2 c2 c2 c2 | B3 c d2 e2 | c2 A2 B2 cB | AG c4 B2 | cBAG A4 | G4 z2 G2 | c3 B c2 d2 | %33
w: aut cu- i|nos * de- so-|la- tus re- * *|* * lin- *||quis In-|va- dent e- nim|
 B2 c2 d2 e2 | z8 | z2 e2 d2 c2- | cB B2 cBAG | A4 G4 | z2 G2 c3 B | c2 d2 B2 c2 | d2 e2 z4 | %41
w: gre- gum tu- um||Lu- pa ra-|* * * pa- * * *|* ces|In- va- dent|e- nim gre- gem|tu- um|
 z6 e2 | d2 c4 B2 | c8- | c8- | c8 |] %46
w: Lu-|pi ra- pa-|ces|||
V:2
 z8 | z8 |!mp! z2 D2 F2 E2- | E2 D2 F3 G | A4 z4 | z2 D2 F4 | E2 D2 F3 G | A4 z4 | z2 D4 E2 | %9
w: ||Di- xe- runt|* di- sci- pu-|li|dix- e-|runt di- sci- pu-|li|ad be-|
 G4 D3 E | F2 E3 D G2- | G2 F2 G2 D2- | D2 E2 G2 D2 | z2 C2 E2 G2 | D2 F2 E4 | D2 A4 G2 | %16
w: a- tum *|||||||
 A3 G F2 F2 | E4 z4 | z2 D4 C2 | B,2 A,2 C2 B,2 | A,2 A2 G2 F2- | FEDC D4 | E6 E2 | D4 z4 | z8 | %25
w: ||||||de- se-|ris||
 z8 | z2 C2 E3 F | G2 G4 G2 | A2 F2 D2 E2 | FEDC D4 | C4 z4 | z8 | C2 F3 E F2 | G2 E2 F2 G2 | %34
w: |aut cu- i|nos de- so-|la- tus re- *|lin- * * * *|quis||In- va- dent e-|nim gre- gum tu-|
 A4 z4 | z2 E2 F2 E2 | D4 C4 | z8 | z4 C2 F2- | FE F2 G2 E2 | F2 G2 A3 G | F3 E/D/ E2 E2 | %42
w: um|Lu- pa ra-|pa- ces||In- va-|* dent e- * nim|gre- gem tu- *|* * um * Lu-|
 F2 G2 A2 G2 | z2 E4 F2 | G4 A4 | G8 |] %46
w: pi ra- pa- ces|Lu- pi|ra- pa-|ces|
V:3
!mp! G4 B4 | A2 G2 B3 c | d2 G2 A2 c2 | G2 B3 A d2- | dc cB/A/ GABc | d4 z2 d2 | c2 B2 A3 B | %7
w: Dix- xe-|runt di- sci- pu-|li ad be- a-|tum Ma- ar- ti-||num ad|be- a- * *|
 cA d4 c2 | d4 z4 | z2 G2 B4 | A2 G2 B3 c | d4 z2 G2 | A2 c2 G2 B2 | A4 B2 G2- | G2 F2 G2 g2- | %15
w: tu- um Mar- ti-|num|||||||
 g2 f2 e2 d2 | f2 e2 d4 | z4 d3 d | c2 B2 A2 G2 | d4 z2 d2- | d2 c2 B2 A2 | c2 B2 A4 | %22
w: |||||||
 z2 c2 c2 c2 | B3 c d2 e2 | c2 A2 B2 cB | AG c4 B2 | cBAG A4 | G8 | z8 | z6 G2 | c3 B c2 d2 | %31
w: aut cu- i|nos * de- so-|la- tus re- * *||* * * * lin-|quis||In-|va- * dent e-|
 B2 c2 d2 e2- | ed c4 BA | G4 z2 e2 | d2 c4 B2 | c4 z4 | z2 G2 c3 B | c2 d2 B2 c2 | d2 e2 z4 | z8 | %40
w: nim gre- gum tu-||um Lu-|pi ra- pa-|ces|In- va- dent|e- num gre- gem|tu- um||
 z2 e2 d2 c2- | c2 B2 c2 c2 | f2 e2 d4 | c8- | c8- | c8 |] %46
w: Lu- pi ra-|* pa- ces lu-|pi ra- pa-|ces|||
V:4
 z8 | z8 | z8 | z4!mp! D,4 | F,4 E,2 D,2 | F,3 G, A,2 D,2 | E,2 G,2 D,2 F,2- | F,2 E,D, E,4 | %8
w: |||Di-|xe- runt di-|sci- pu- li ad|be- a- tum Ma-|* * ar- ti-|
 D,4 z4 | z2 G,2 G,2 G,2 | F,2 C,2 G,4 | D,2 D,2 E,2 G,2 | D,2 C,D, E,F, G,2- | G,2 F,2 G,4 | %14
w: num|ad be- a-|tum Mar- ti-|num ad be- a-|tum Ma- * * * *|er- ti- num|
 z2 D4 C2 | B,2 A,2 C2 B,2 | A,4 z4 | z2 G,4 F,2 | E,2 D,2 F,2 E,2 | D,4 z2 D,2- | %20
w: ||||||
 D,E, F,2 G,2 A,2 | F,2 G,2 D,4 | z2 C,2 E,3 F, | G,2 G,4 G,2 | A,2 F,2 D,2 E,2 | F,E,D,C, D,4 | %26
w: ||aut cu- i|nos de- so-|la- tus re- *||
 C,8 | z8 | z6 C,2 | F,3 E, F,2 G,2 | C,2 F,3 E, F,2 | G,2 E,2 F,2 G,2 | A,3 G, F,2 D,2 | %33
w: ||In-|va- dent e- nim|In- va- dent e-|nim gre- * gum|tu- * * *|
 E,4 D,2 C,2 | F,3 E, D,4 | C,4 z4 | z4 C,2 F,2- | F,E, F,2 G,2 E,2 | F,2 G,2 A,4 | z8 | %40
w: * um Lu-|pi ra- pa-|ces|In- va-|* dent e- nim gre-|gem tu- um||
 z2 C,2 F,3 E, | D,4 C,2 C,2 | D,2 E,2 F,2 G,2 | z2 A,3 G, F,2- | F,2 E,2 F,4 | C,8 |] %46
w: Lu- pi ra-|pa- ces lu-|pi ra- pa- ces|Lu- * pi|* ra- pa-|ces|

